SVG_Azure_All/Archive Storage.svg

<?xml version="1.0" encoding="UTF-8" standalone="no"?>
<!-- Generated by Microsoft Visio, SVG Export Archive Storage.svg Page-1 -->

<svg
   xmlns:dc="http://purl.org/dc/elements/1.1/"
   xmlns:cc="http://creativecommons.org/ns#"
   xmlns:rdf="http://www.w3.org/1999/02/22-rdf-syntax-ns#"
   xmlns:svg="http://www.w3.org/2000/svg"
   xmlns="http://www.w3.org/2000/svg"
   xmlns:sodipodi="http://sodipodi.sourceforge.net/DTD/sodipodi-0.dtd"
   xmlns:inkscape="http://www.inkscape.org/namespaces/inkscape"
   width="0.78736115in"
   height="0.74809724in"
   viewBox="0 0 56.690001 53.862794"
   xml:space="preserve"
   class="st11"
   version="1.1"
   id="svg106"
   sodipodi:docname="Archive Storage.svg"
   style="font-size:12px;overflow:visible;color-interpolation-filters:sRGB;fill:none;fill-rule:evenodd;stroke-linecap:square;stroke-miterlimit:3"
   inkscape:version="0.92.5 (2060ec1f9f, 2020-04-08)"><metadata
   id="metadata112"><rdf:RDF><cc:Work
       rdf:about=""><dc:format>image/svg+xml</dc:format><dc:type
         rdf:resource="http://purl.org/dc/dcmitype/StillImage" /></cc:Work></rdf:RDF></metadata><defs
   id="defs110" /><sodipodi:namedview
   pagecolor="#ffffff"
   bordercolor="#666666"
   borderopacity="1"
   objecttolerance="10"
   gridtolerance="10"
   guidetolerance="10"
   inkscape:pageopacity="0"
   inkscape:pageshadow="2"
   inkscape:window-width="640"
   inkscape:window-height="480"
   id="namedview108"
   showgrid="false"
   inkscape:zoom="1.8979166"
   inkscape:cx="37.795281"
   inkscape:cy="16.819201"
   inkscape:window-x="0"
   inkscape:window-y="0"
   inkscape:window-maximized="0"
   inkscape:current-layer="svg106" />
	<style
   type="text/css"
   id="style2">
	<![CDATA[
		.st1 {fill:#3e3e3e;stroke:none;stroke-linecap:butt;stroke-width:0.940678}
		.st2 {fill:#ffffff;stroke:none;stroke-linecap:butt;stroke-width:0.940678}
		.st3 {fill:#804998;fill-opacity:0.85;stroke:none;stroke-linecap:butt;stroke-width:0.940678}
		.st4 {fill:#59b4d9;fill-opacity:0.5;stroke:none;stroke-linecap:butt;stroke-width:0.940678}
		.st5 {fill:#59b4d9;stroke:none;stroke-linecap:butt;stroke-width:0.940678}
		.st6 {fill:#ffffff;fill-opacity:0.25;stroke:none;stroke-linecap:butt;stroke-width:0.940678}
		.st7 {fill:#ffffff;fill-opacity:0.2;stroke:none;stroke-linecap:butt;stroke-width:0.940678}
		.st8 {fill:#ffffff;fill-opacity:0.4;stroke:none;stroke-linecap:butt;stroke-width:0.940678}
		.st9 {fill:#ffffff;fill-opacity:0.15;stroke:none;stroke-linecap:butt;stroke-width:0.940678}
		.st10 {fill:#ffffff;fill-opacity:0.6;stroke:none;stroke-linecap:butt;stroke-width:0.940678}
		.st11 {fill:none;fill-rule:evenodd;font-size:12px;overflow:visible;stroke-linecap:square;stroke-miterlimit:3}
	]]>
	</style>

	<g
   id="g104"
   transform="translate(-5.66929,-5.3814767)">
		<title
   id="title4">Page-1</title>
		<g
   id="group9086-1"
   transform="translate(5.66929,-34.0157)">
			<title
   id="title6">Archive Storage</title>
			<g
   id="shape9087-2">
				<title
   id="title8">path2</title>
				<path
   d="M 49.89,93.26 H 6.8 C 3.05,93.26 0,90.25 0,86.53 V 41.65 h 56.69 v 44.88 c 0,3.72 -3.04,6.73 -6.8,6.73 z"
   class="st1"
   id="path10"
   inkscape:connector-curvature="0"
   style="fill:#3e3e3e;stroke:none;stroke-width:0.940678;stroke-linecap:butt" />
			</g>
			<g
   id="shape9088-4"
   transform="translate(4.53544,-21.3189)">
				<title
   id="title13">rect4</title>
				<rect
   x="0"
   y="79.795303"
   width="47.622002"
   height="13.4646"
   class="st2"
   id="rect15"
   style="fill:#ffffff;stroke:none;stroke-width:0.940678;stroke-linecap:butt" />
			</g>
			<g
   id="shape9089-6"
   transform="translate(4.53544,-21.3189)">
				<title
   id="title18">rect6</title>
				<rect
   x="0"
   y="79.795303"
   width="47.622002"
   height="13.4646"
   class="st3"
   id="rect20"
   style="fill:#804998;fill-opacity:0.85;stroke:none;stroke-width:0.940678;stroke-linecap:butt" />
			</g>
			<g
   id="shape9090-8"
   transform="translate(4.53544,-4.48819)">
				<title
   id="title23">rect8</title>
				<rect
   x="0"
   y="79.795303"
   width="47.622002"
   height="13.4646"
   class="st2"
   id="rect25"
   style="fill:#ffffff;stroke:none;stroke-width:0.940678;stroke-linecap:butt" />
			</g>
			<g
   id="shape9091-10"
   transform="translate(4.53544,-4.48819)">
				<title
   id="title28">rect10</title>
				<rect
   x="0"
   y="79.795303"
   width="47.622002"
   height="13.4646"
   class="st4"
   id="rect30"
   style="fill:#59b4d9;fill-opacity:0.5;stroke:none;stroke-width:0.940678;stroke-linecap:butt" />
			</g>
			<g
   id="shape9092-12"
   transform="translate(4.53544,-38.1496)">
				<title
   id="title33">rect12</title>
				<rect
   x="0"
   y="79.795303"
   width="47.622002"
   height="13.4646"
   class="st5"
   id="rect35"
   style="fill:#59b4d9;stroke:none;stroke-width:0.940678;stroke-linecap:butt" />
			</g>
			<g
   id="shape9093-14"
   transform="translate(4.53544,-32.5394)">
				<title
   id="title38">rect14</title>
				<rect
   x="0"
   y="91.015701"
   width="47.622002"
   height="2.2440901"
   class="st6"
   id="rect40"
   style="fill:#ffffff;fill-opacity:0.25;stroke:none;stroke-width:0.940678;stroke-linecap:butt" />
			</g>
			<g
   id="shape9094-16"
   transform="translate(4.53544,-49.3701)">
				<title
   id="title43">rect16</title>
				<rect
   x="0"
   y="91.015701"
   width="47.622002"
   height="2.2440901"
   class="st7"
   id="rect45"
   style="fill:#ffffff;fill-opacity:0.2;stroke:none;stroke-width:0.940678;stroke-linecap:butt" />
			</g>
			<g
   id="shape9095-18"
   transform="translate(4.53544,-15.7087)">
				<title
   id="title48">rect18</title>
				<rect
   x="0"
   y="91.015701"
   width="47.622002"
   height="2.2440901"
   class="st8"
   id="rect50"
   style="fill:#ffffff;fill-opacity:0.4;stroke:none;stroke-width:0.940678;stroke-linecap:butt" />
			</g>
			<g
   id="shape9096-20">
				<title
   id="title53">path20</title>
				<path
   d="M 6.8,93.26 H 9.86 L 45.45,41.65 H 0 v 44.88 c 0,3.72 3.05,6.73 6.8,6.73 z"
   class="st9"
   id="path55"
   inkscape:connector-curvature="0"
   style="fill:#ffffff;fill-opacity:0.15;stroke:none;stroke-width:0.940678;stroke-linecap:butt" />
			</g>
			<g
   id="shape9097-22"
   transform="translate(11.0699,-28.2756)">
				<title
   id="title58">path22</title>
				<path
   d="m 3.57,93.26 c 0.51,0 0.95,-0.38 1.01,-0.89 L 7.07,68.8 C 7.13,68.2 6.66,67.68 6.05,67.68 H 1.08 C 0.47,67.68 0,68.2 0.07,68.8 l 2.49,23.57 c 0.06,0.51 0.49,0.89 1.01,0.89 z"
   class="st5"
   id="path60"
   inkscape:connector-curvature="0"
   style="fill:#59b4d9;stroke:none;stroke-width:0.940678;stroke-linecap:butt" />
			</g>
			<g
   id="shape9098-24"
   transform="translate(12.0268,-29.1732)">
				<title
   id="title63">polygon24</title>
				<path
   d="M 5.22,69.47 2.71,93.26 H 2.51 L 0,69.47 Z"
   class="st10"
   id="path65"
   inkscape:connector-curvature="0"
   style="fill:#ffffff;fill-opacity:0.6;stroke:none;stroke-width:0.940678;stroke-linecap:butt" />
			</g>
			<g
   id="shape9099-26"
   transform="translate(12.0268,-29.1732)">
				<title
   id="title68">polygon26</title>
				<path
   d="m 2.61,69.47 0.1,23.79 H 2.51 L 0,69.47 Z"
   class="st10"
   id="path70"
   inkscape:connector-curvature="0"
   style="fill:#ffffff;fill-opacity:0.6;stroke:none;stroke-width:0.940678;stroke-linecap:butt" />
			</g>
			<g
   id="shape9100-28"
   transform="translate(39.7621,-23.563)">
				<title
   id="title73">path28</title>
				<path
   d="m 4.46,93.26 c 0.64,0 1.19,-0.48 1.26,-1.11 L 8.83,64.37 C 8.92,63.62 8.33,62.96 7.57,62.96 H 1.35 c -0.76,0 -1.35,0.66 -1.26,1.41 l 3.1,27.78 c 0.08,0.63 0.62,1.11 1.27,1.11 z"
   class="st5"
   id="path75"
   inkscape:connector-curvature="0"
   style="fill:#59b4d9;stroke:none;stroke-width:0.940678;stroke-linecap:butt" />
			</g>
			<g
   id="shape9101-30"
   transform="translate(40.9572,-24.685)">
				<title
   id="title78">polygon30</title>
				<path
   d="M 6.53,65.21 3.39,93.26 H 3.14 L 0,65.21 Z"
   class="st10"
   id="path80"
   inkscape:connector-curvature="0"
   style="fill:#ffffff;fill-opacity:0.6;stroke:none;stroke-width:0.940678;stroke-linecap:butt" />
			</g>
			<g
   id="shape9102-32"
   transform="translate(33.4375,-28.2756)">
				<title
   id="title83">path32</title>
				<path
   d="m 3.57,93.26 c 0.51,0 0.95,-0.38 1.01,-0.89 L 7.06,68.8 C 7.13,68.2 6.66,67.68 6.05,67.68 H 1.08 C 0.47,67.68 0,68.2 0.07,68.8 l 2.49,23.57 c 0.05,0.51 0.49,0.89 1.01,0.89 z"
   class="st5"
   id="path85"
   inkscape:connector-curvature="0"
   style="fill:#59b4d9;stroke:none;stroke-width:0.940678;stroke-linecap:butt" />
			</g>
			<g
   id="shape9103-34"
   transform="translate(34.6473,-30.3906)">
				<title
   id="title88">path34</title>
				<path
   d="M 0,70.91 H 4.72 L 2.36,93.26 Z"
   class="st10"
   id="path90"
   inkscape:connector-curvature="0"
   style="fill:#ffffff;fill-opacity:0.6;stroke:none;stroke-width:0.940678;stroke-linecap:butt" />
			</g>
			<g
   id="shape9104-36"
   transform="translate(34.6473,-30.3906)">
				<title
   id="title93">path36</title>
				<path
   d="M 0,70.91 H 2.36 V 93.26 Z"
   class="st10"
   id="path95"
   inkscape:connector-curvature="0"
   style="fill:#ffffff;fill-opacity:0.6;stroke:none;stroke-width:0.940678;stroke-linecap:butt" />
			</g>
			<g
   id="shape9105-38"
   transform="translate(40.9572,-24.685)">
				<title
   id="title98">polygon38</title>
				<path
   d="M 3.26,65.21 3.39,93.26 H 3.14 L 0,65.21 Z"
   class="st10"
   id="path100"
   inkscape:connector-curvature="0"
   style="fill:#ffffff;fill-opacity:0.6;stroke:none;stroke-width:0.940678;stroke-linecap:butt" />
			</g>
		</g>
	</g>
</svg>

<?xml version="1.0" encoding="UTF-8" standalone="no"?>
<!DOCTYPE svg PUBLIC "-//W3C//DTD SVG 1.1//EN" "http://www.w3.org/Graphics/SVG/1.1/DTD/svg11.dtd">
<!-- Generated by Microsoft Visio, SVG Export Archive Storage.svg Page-1 -->
<svg xmlns="http://www.w3.org/2000/svg" xmlns:xlink="http://www.w3.org/1999/xlink" xmlns:ev="http://www.w3.org/2001/xml-events"
		width="0.944882in" height="1.29528in" viewBox="0 0 68.0315 93.2598" xml:space="preserve" color-interpolation-filters="sRGB"
		class="st11">
	<style type="text/css">
	<![CDATA[
		.st1 {fill:#3e3e3e;stroke:none;stroke-linecap:butt;stroke-width:0.940678}
		.st2 {fill:#ffffff;stroke:none;stroke-linecap:butt;stroke-width:0.940678}
		.st3 {fill:#804998;fill-opacity:0.85;stroke:none;stroke-linecap:butt;stroke-width:0.940678}
		.st4 {fill:#59b4d9;fill-opacity:0.5;stroke:none;stroke-linecap:butt;stroke-width:0.940678}
		.st5 {fill:#59b4d9;stroke:none;stroke-linecap:butt;stroke-width:0.940678}
		.st6 {fill:#ffffff;fill-opacity:0.25;stroke:none;stroke-linecap:butt;stroke-width:0.940678}
		.st7 {fill:#ffffff;fill-opacity:0.2;stroke:none;stroke-linecap:butt;stroke-width:0.940678}
		.st8 {fill:#ffffff;fill-opacity:0.4;stroke:none;stroke-linecap:butt;stroke-width:0.940678}
		.st9 {fill:#ffffff;fill-opacity:0.15;stroke:none;stroke-linecap:butt;stroke-width:0.940678}
		.st10 {fill:#ffffff;fill-opacity:0.6;stroke:none;stroke-linecap:butt;stroke-width:0.940678}
		.st11 {fill:none;fill-rule:evenodd;font-size:12px;overflow:visible;stroke-linecap:square;stroke-miterlimit:3}
	]]>
	</style>

	<g>
		<title>Page-1</title>
		<g id="group8891-1" transform="translate(5.66929,-34.0157)">
			<title>Archive Storage</title>
			<g id="shape8892-2">
				<title>path2</title>
				<path d="M49.89 93.26 L6.8 93.26 C3.05 93.26 0 90.25 0 86.53 L0 41.65 L56.69 41.65 L56.69 86.53 C56.69 90.25 53.65
							 93.26 49.89 93.26 Z" class="st1"/>
			</g>
			<g id="shape8893-4" transform="translate(4.53544,-21.3189)">
				<title>rect4</title>
				<rect x="0" y="79.7953" width="47.622" height="13.4646" class="st2"/>
			</g>
			<g id="shape8894-6" transform="translate(4.53544,-21.3189)">
				<title>rect6</title>
				<rect x="0" y="79.7953" width="47.622" height="13.4646" class="st3"/>
			</g>
			<g id="shape8895-8" transform="translate(4.53544,-4.48819)">
				<title>rect8</title>
				<rect x="0" y="79.7953" width="47.622" height="13.4646" class="st2"/>
			</g>
			<g id="shape8896-10" transform="translate(4.53544,-4.48819)">
				<title>rect10</title>
				<rect x="0" y="79.7953" width="47.622" height="13.4646" class="st4"/>
			</g>
			<g id="shape8897-12" transform="translate(4.53544,-38.1496)">
				<title>rect12</title>
				<rect x="0" y="79.7953" width="47.622" height="13.4646" class="st5"/>
			</g>
			<g id="shape8898-14" transform="translate(4.53544,-32.5394)">
				<title>rect14</title>
				<rect x="0" y="91.0157" width="47.622" height="2.24409" class="st6"/>
			</g>
			<g id="shape8899-16" transform="translate(4.53544,-49.3701)">
				<title>rect16</title>
				<rect x="0" y="91.0157" width="47.622" height="2.24409" class="st7"/>
			</g>
			<g id="shape8900-18" transform="translate(4.53544,-15.7087)">
				<title>rect18</title>
				<rect x="0" y="91.0157" width="47.622" height="2.24409" class="st8"/>
			</g>
			<g id="shape8901-20">
				<title>path20</title>
				<path d="M6.8 93.26 L9.86 93.26 L45.45 41.65 L0 41.65 L0 86.53 C0 90.25 3.05 93.26 6.8 93.26 Z" class="st9"/>
			</g>
			<g id="shape8902-22" transform="translate(11.0699,-28.2756)">
				<title>path22</title>
				<path d="M3.57 93.26 C4.08 93.26 4.52 92.88 4.58 92.37 L7.07 68.8 C7.13 68.2 6.66 67.68 6.05 67.68 L1.08 67.68 C0.47
							 67.68 0 68.2 0.07 68.8 L2.56 92.37 C2.62 92.88 3.05 93.26 3.57 93.26 Z" class="st5"/>
			</g>
			<g id="shape8903-24" transform="translate(12.0268,-29.1732)">
				<title>polygon24</title>
				<path d="M5.22 69.47 L2.71 93.26 L2.51 93.26 L0 69.47 L5.22 69.47 Z" class="st10"/>
			</g>
			<g id="shape8904-26" transform="translate(12.0268,-29.1732)">
				<title>polygon26</title>
				<path d="M2.61 69.47 L2.71 93.26 L2.51 93.26 L0 69.47 L2.61 69.47 Z" class="st10"/>
			</g>
			<g id="shape8905-28" transform="translate(39.7621,-23.563)">
				<title>path28</title>
				<path d="M4.46 93.26 C5.1 93.26 5.65 92.78 5.72 92.15 L8.83 64.37 C8.92 63.62 8.33 62.96 7.57 62.96 L1.35 62.96 C0.59
							 62.96 0 63.62 0.09 64.37 L3.19 92.15 C3.27 92.78 3.81 93.26 4.46 93.26 Z" class="st5"/>
			</g>
			<g id="shape8906-30" transform="translate(40.9572,-24.685)">
				<title>polygon30</title>
				<path d="M6.53 65.21 L3.39 93.26 L3.14 93.26 L0 65.21 L6.53 65.21 Z" class="st10"/>
			</g>
			<g id="shape8907-32" transform="translate(33.4375,-28.2756)">
				<title>path32</title>
				<path d="M3.57 93.26 C4.08 93.26 4.52 92.88 4.58 92.37 L7.06 68.8 C7.13 68.2 6.66 67.68 6.05 67.68 L1.08 67.68 C0.47
							 67.68 0 68.2 0.07 68.8 L2.56 92.37 C2.61 92.88 3.05 93.26 3.57 93.26 Z" class="st5"/>
			</g>
			<g id="shape8908-34" transform="translate(34.6473,-30.3906)">
				<title>path34</title>
				<path d="M0 70.91 L4.72 70.91 L2.36 93.26 L0 70.91 Z" class="st10"/>
			</g>
			<g id="shape8909-36" transform="translate(34.6473,-30.3906)">
				<title>path36</title>
				<path d="M0 70.91 L2.36 70.91 L2.36 93.26 L0 70.91 Z" class="st10"/>
			</g>
			<g id="shape8910-38" transform="translate(40.9572,-24.685)">
				<title>polygon38</title>
				<path d="M3.26 65.21 L3.39 93.26 L3.14 93.26 L0 65.21 L3.26 65.21 Z" class="st10"/>
			</g>
		</g>
	</g>
</svg>
